X: 2817
T: Bar Behind The Maid, The
R: jig
M: 6/8
K: Dmajor
|:FAF AFD|FAF Ade|fBA Bcd|faf edB|
AFB ADE|AFB Ade|fBA Bcd|AFE D3:|
|:fag fde|fda fda|efg bef|geb geb|
faf bfa|def ede|eBA Bcd|AFE D3:|

